X:1
T: Con Casey's Jig
C:
R:Jig
Q:180
K:Am
M:6/8
L:1/16
AG|E2A2E2 A2E2A2|G6 G2E2G2|E2A2E2 A2E2d2|A2G2E2 E2D2C2|E2A2E2 A2E2A2|G6 G2A2B2|c2B2A2 B2G2E2|E2D2D2 D4AG|
E2A2E2 A2E2A2|G6 G2E2G2|E2A2E2 A2E2d2|A2G2E2 E2D2C2|E2A2E2 A2E2A2|G6 G2A2B2|c2B2A2 B2G2E2|E2D2D2 D4e2|
f2e2d2 e2c2A2|G2E2E2 G2c2e2|f2e2d2 e2c2A2|G2E2G2 A4e2|f2e2d2 e2c2A2|G4E2 G2A2B2|c2B2A2 B2G2E2|E2D2D2 D4e2|
f2e2d2 e2c2A2|G2E2E2 G2c2e2|f2e2d2 e2c2A2|G2E2G2 A4e2|f2e2d2 e2c2A2|G4E2 G2A2B2|c2B2A2 B2G2E2|E2D2D2 D4||
